fundacion-impronta-web/src/assets/svg/donation-icon.svg

<?xml version="1.0" encoding="UTF-8" standalone="no" ?>
<!DOCTYPE svg PUBLIC "-//W3C//DTD SVG 1.1//EN" "http://www.w3.org/Graphics/SVG/1.1/DTD/svg11.dtd">
<svg xmlns="http://www.w3.org/2000/svg" xmlns:xlink="http://www.w3.org/1999/xlink" version="1.1" width="1080" height="1080" viewBox="0 0 1080 1080" xml:space="preserve">
<desc>Created with Fabric.js 5.2.4</desc>
<defs>
</defs>
<rect x="0" y="0" width="100%" height="100%" fill="transparent"></rect>
<g transform="matrix(1 0 0 1 540 540)" id="b29b71aa-f542-49fd-a283-798f5ee695b0"  >
<rect style="stroke: none; stroke-width: 1; stroke-dasharray: none; stroke-linecap: butt; stroke-dashoffset: 0; stroke-linejoin: miter; stroke-miterlimit: 4; fill: rgb(255,255,255); fill-rule: nonzero; opacity: 1; visibility: hidden;" vector-effect="non-scaling-stroke"  x="-540" y="-540" rx="0" ry="0" width="1080" height="1080" />
</g>
<g transform="matrix(1 0 0 1 540 540)" id="70835e97-7552-4ca1-9cf6-f899a2ab98e9"  >
</g>
<g transform="matrix(42.21 0 0 43.19 538.99 545.67)"  >
<g style="" vector-effect="non-scaling-stroke"   >
		<g transform="matrix(1 0 0 1 0 0)"  >
<path style="stroke: none; stroke-width: 1; stroke-dasharray: none; stroke-linecap: butt; stroke-dashoffset: 0; stroke-linejoin: miter; stroke-miterlimit: 4; fill: rgb(255,255,255); fill-rule: nonzero; opacity: 1;" vector-effect="non-scaling-stroke"  transform=" translate(-11.99, -11.88)" d="M 23.5 12.24 L 22.39 12.24 C 21.77965108563461 10.185136738560608 20.261434941533068 8.523205959459162 18.27 7.73 C 18.924007987157722 6.890092314773536 19.276254745272215 5.854486845916923 19.27 4.790000000000003 C 19.27 2.1445560483105 17.1254439516895 8.881784197001252e-16 14.48 8.881784197001252e-16 C 11.8345560483105 8.881784197001252e-16 9.69 2.1445560483104997 9.69 4.79 C 9.692778604191222 5.911566019015835 10.09317022483974 6.995812354577309 10.82 7.850000000000001 C 10.24 8.010000000000002 9.38 8.280000000000001 8.290000000000001 8.680000000000001 C 7.422091796789598 7.492891229583666 6.399747145229221 6.426827892265779 5.249999999999988 5.5099999999999945 C 5.098532304142357 5.390271103757316 4.891665570233236 5.368449155154307 4.718549831524706 5.453938408837533 C 4.545434092816177 5.539427662520757 4.43700869887234 5.716949427347448 4.4399999999999995 5.91 L 4.4399999999999995 11 C 3.5566530380870405 11.710899265502587 2.7399411530056432 12.500833711728854 1.9999999999999893 13.36000000000001 L 0.5 13.36 C 0.22385762508460327 13.36 0 13.583857625084603 0 13.86 L 0 17.59 C -0.0006945083920414851 17.78944322522821 0.11720562870206053 17.970223435439166 0.3000000000000001 18.05 L 7.25 21.05 L 7.25 22.27 C 7.255452904402147 23.09063499797216 7.919365002027839 23.75454709559785 8.74 23.759999999999998 L 10.27 23.759999999999998 C 11.090634997972161 23.75454709559785 11.754547095597854 23.09063499797216 11.76 22.27 L 11.76 21.2 L 15.61 21.2 L 15.61 22.25 C 15.615452904402146 23.07063499797216 16.279365002027838 23.73454709559785 17.099999999999998 23.74 L 18.63 23.74 C 19.45063499797216 23.73454709559785 20.11454709559785 23.07063499797216 20.119999999999997 22.25 L 20.119999999999997 19.58 C 22.022597246236895 18.059505509773796 22.96510243234909 15.636465861266732 22.589999999999996 13.229999999999995 L 23.479999999999997 13.229999999999999 C 23.756142374915395 13.229999999999999 23.979999999999997 13.006142374915395 23.979999999999997 12.729999999999999 C 23.979999999999997 12.453857625084602 23.756142374915395 12.229999999999999 23.479999999999997 12.229999999999999 Z M 14.52 1 C 16.613159201858707 1 18.31 2.696840798141292 18.310000000000002 4.789999999999999 C 18.310000000000002 6.883159201858707 16.613159201858707 8.579999999999998 14.520000000000001 8.58 C 12.426840798141296 8.580000000000002 10.73 6.883159201858708 10.73 4.790000000000001 C 10.73 2.696840798141293 12.426840798141294 1 14.52 1 Z M 19.34 19 L 19.34 19 L 19.27 19.08 L 19.27 19.15 C 19.267294510243886 19.17993900270983 19.267294510243886 19.210060997290167 19.27 19.24 C 19.266787429045735 19.273255928742312 19.266787429045735 19.306744071257686 19.27 19.34 C 19.27 19.34 19.27 19.34 19.27 19.34 L 19.27 22.24 C 19.264683858960385 22.508386670806694 19.048386670806696 22.724683858960383 18.78 22.729999999999997 L 17.12 22.729999999999997 C 16.851613329193306 22.724683858960383 16.635316141039617 22.508386670806694 16.630000000000003 22.24 L 16.630000000000003 20.639999999999997 C 16.629911822290733 20.58000003239712 16.629911822290733 20.51999996760289 16.630000000000003 20.46000000000001 L 16.580000000000002 20.38 L 16.520000000000003 20.3 L 16.450000000000003 20.3 L 16.360000000000003 20.25 L 16.270000000000003 20.25 L 16.180000000000003 20.25 L 11.27 20.25 C 10.993857625084603 20.25 10.77 20.4738576250846 10.77 20.75 L 10.77 22.3 C 10.764683858960385 22.568386670806696 10.548386670806694 22.784683858960385 10.28 22.79 L 8.75 22.79 C 8.481613329193305 22.784683858960385 8.265316141039614 22.568386670806696 8.26 22.3 L 8.26 20.71 L 8.26 20.71 C 8.26 20.71 8.26 20.71 8.26 20.71 C 8.268766295185502 20.65702689134454 8.268766295185502 20.602973108655462 8.26 20.55 C 8.246058594586085 20.521723898141612 8.229307565590206 20.494922251748207 8.209999999999999 20.470000000000002 C 8.174640744951724 20.372299344671347 8.097700655328655 20.29535925504828 8 20.26 L 8 20.26 L 8 20.26 L 1 17.26 L 1 14.360000000000001 L 2.24 14.360000000000001 C 2.3956395040904943 14.362382441393017 2.543510436180143 14.292143748650433 2.64 14.170000000000002 C 3.419209404904144 13.225370477818938 4.297575156849764 12.36711997210108 5.26 11.61 L 5.26 11.610000000000001 L 5.33 11.530000000000001 L 5.33 11.46 C 5.33287895348925 11.43006906977661 5.33287895348925 11.399930930223391 5.33 11.370000000000001 C 5.3334816926784 11.33675758304597 5.333481692678399 11.303242416954033 5.33 11.270000000000001 L 5.33 7 C 6.242754038607976 7.715465366067705 7.041824336543193 8.565109733492495 7.699999999999996 9.519999999999996 C 7.7372688397656315 9.583981666226903 7.788553293646198 9.638685083699507 7.8500000000000005 9.68 L 7.8500000000000005 9.68 C 7.916711309225121 9.720522703972827 7.992138063158427 9.74452212567888 8.07 9.75 L 8.3 9.75 C 10.040000000000001 9.11 11.3 8.75 11.71 8.66 C 13.44744332931042 9.943563961346518 15.836093674181225 9.877556352507256 17.5 8.5 C 19.64097894682806 9.170776461571123 21.228839703053726 10.97999813722485 21.616102394412394 13.189921104217255 C 22.003365085771065 15.39984407120966 21.12531752452844 17.641186823448308 19.34 19 Z" stroke-linecap="round" />
</g>
		<g transform="matrix(1 0 0 1 -6.61 2.14)"  >
<circle style="stroke: none; stroke-width: 1; stroke-dasharray: none; stroke-linecap: butt; stroke-dashoffset: 0; stroke-linejoin: miter; stroke-miterlimit: 4; fill: rgb(255,255,255); fill-rule: nonzero; opacity: 1;" vector-effect="non-scaling-stroke"  cx="0" cy="0" r="0.96" />
</g>
		<g transform="matrix(1 0 0 1 2.53 -1.27)"  >
<path style="stroke: none; stroke-width: 1; stroke-dasharray: none; stroke-linecap: butt; stroke-dashoffset: 0; stroke-linejoin: miter; stroke-miterlimit: 4; fill: rgb(255,255,255); fill-rule: nonzero; opacity: 1;" vector-effect="non-scaling-stroke"  transform=" translate(-14.52, -10.61)" d="M 17.88 10.11 L 11.15 10.11 C 10.873857625084604 10.11 10.65 10.333857625084603 10.65 10.61 C 10.65 10.886142374915396 10.873857625084604 11.11 11.15 11.11 L 17.880000000000003 11.11 C 18.1561423749154 11.11 18.380000000000003 10.886142374915396 18.380000000000003 10.61 C 18.380000000000003 10.333857625084603 18.1561423749154 10.11 17.880000000000003 10.11 Z" stroke-linecap="round" />
</g>
</g>
</g>
</svg>

<?xml version="1.0" ?><svg viewBox="0 0 24 23.75" xmlns="http://www.w3.org/2000/svg"><title/><g data-name="Camada 2" id="Camada_2"><g data-name="Camada 1" id="Camada_1-2"><path d="M23.5,12.24H22.39a7,7,0,0,0-4.12-4.51,4.74,4.74,0,0,0,1-2.94,4.79,4.79,0,0,0-9.58,0,4.74,4.74,0,0,0,1.13,3.06c-.58.16-1.44.43-2.53.83A16.54,16.54,0,0,0,5.25,5.51a.5.5,0,0,0-.81.4V11A18.66,18.66,0,0,0,2,13.36H.5a.5.5,0,0,0-.5.5v3.73a.5.5,0,0,0,.3.46l6.95,3v1.22a1.5,1.5,0,0,0,1.49,1.49h1.53a1.5,1.5,0,0,0,1.49-1.49V21.2h3.85v1.05a1.5,1.5,0,0,0,1.49,1.49h1.53a1.5,1.5,0,0,0,1.49-1.49V19.58a6.79,6.79,0,0,0,2.47-6.35h.89a.5.5,0,0,0,0-1ZM14.52,1a3.79,3.79,0,1,1-3.79,3.79A3.79,3.79,0,0,1,14.52,1Zm4.82,18,0,0-.07.08,0,.07a.5.5,0,0,0,0,.09.52.52,0,0,0,0,.1s0,0,0,0v2.9a.5.5,0,0,1-.49.49H17.12a.5.5,0,0,1-.49-.49v-1.6a61.24,61.24,0,0,1,0-.18l-.05-.08-.06-.08-.07,0-.09-.05-.09,0-.09,0H11.27a.5.5,0,0,0-.5.5v1.55a.5.5,0,0,1-.49.49H8.75a.5.5,0,0,1-.49-.49V20.71h0s0,0,0,0a.49.49,0,0,0,0-.16.47.47,0,0,0-.05-.08A.35.35,0,0,0,8,20.26l0,0h0L1,17.26v-2.9H2.24a.5.5,0,0,0,.4-.19,17.11,17.11,0,0,1,2.62-2.56l0,0,.07-.08,0-.07a.47.47,0,0,0,0-.09.48.48,0,0,0,0-.1V7A11.48,11.48,0,0,1,7.7,9.52a.49.49,0,0,0,.15.16l0,0a.49.49,0,0,0,.22.07H8.3c1.74-.64,3-1,3.41-1.09A4.7,4.7,0,0,0,17.5,8.5,6,6,0,0,1,19.34,19Z"/><circle cx="5.38" cy="14.02" r="0.96"/><path d="M17.88,10.11H11.15a.5.5,0,0,0,0,1h6.73a.5.5,0,0,0,0-1Z"/></g></g></svg>
